!!!COM: Schiørring, Niels
!!!CDT: 1743-1798
!!!COM: Niels Schiørring
!!!ONM: 7
!!!OPR@@DA: Alleene til dig Herre Jesu Christ
**kern	**fb	**kern	**kern	**kern	**kern	**kern	**kern	**kern
*part6	*part6	*part6	*part5	*part5	*part4	*part3	*part2	*part1
*staff8	*	*staff7	*staff6	*staff5	*staff4	*staff3	*staff2	*staff1
*clefF4	*	*clefC1	*clefF4	*clefC1	*clefF4	*clefC4	*clefC3	*clefC1
*mclefF4	*	*mclefG2	*mclefF4	*mclefG2	*mclefF4	*mclefGv2	*mclefG2	*mclefG2
*k[b-e-]	*	*k[b-e-]	*k[b-e-]	*k[b-e-]	*k[b-e-]	*k[b-e-]	*k[b-e-]	*k[b-e-]
*M4/4	*	*M4/4	*M4/4	*M4/4	*M4/4	*M4/4	*M4/4	*M4/4
*met(c)	*	*met(c)	*met(c)	*met(c)	*met(c)	*met(c)	*met(c)	*met(c)
*MM180	*	*MM180	*MM180	*MM180	*MM180	*MM180	*MM180	*MM180
*	*above	*	*	*	*	*	*	*
*	*slash	*	*	*	*	*	*	*
*	*	*	*^	*^	*	*	*	*
=1	=1	=1	=1	=1	=1	=1	=1	=1	=1	=1
2GG	.	2b-	2B-	2GG	2b-	2d	2GG	2B-	2d	2b-
=2	=2	=2	=2	=2	=2	=2	=2	=2	=2	=2
2AA	6	2f	2c	2AA	2f	2c	2AA	2A	2c	2f
4BB-	6	(4g	4G	4BB-	4g	4d	(4BB-	(4d	(4d	(4g
4C	6	4a)	4c	4C	4a	4e-	4C)	4c)	4e-)	4a)
=3	=3	=3	=3	=3	=3	=3	=3	=3	=3	=3
2D	6	2b-	2B-	2D	2b-	1f	2D	2B-	2f	2b-
2BB-	.	2dd	[2B-	2BB-	2dd	.	2BB-	[2B-	2f	2dd
=4	=4	=4	=4	=4	=4	=4	=4	=4	=4	=4
2E-	6 5	2cc	2B-]	2E-	2cc	2g	2E-	2B-]	2g	2cc
2F	.	2ccM	2A	2F	2ccM	2f	2F	2Am	(4f	2ccM
.	.	.	.	.	.	.	.	.	4e-)	.
=5	=5	=5	=5	=5	=5	=5	=5	=5	=5	=5
*	*	*	*	*	*	*^	*	*	*	*
2BB-;<	.	2b-;	2B-	2BB-;	2b-;	2f;y	2d\;y	2BB-;	2B-;	2d;	2b-;
2BB-	6	2dd	2B-	2BB-	2dd	2g	2d\	2BB-	2G	2g	2dd
*	*	*	*	*	*	*v	*v	*	*	*	*
=6	=6	=6	=6	=6	=6	=6	=6	=6	=6	=6
2C	6	2cc	2A	2C	2cc	2e-	2C	2e-X	2a	2cc
2C#X	7 5	2b-M	2G	2C#X	2b-M	2enX	2C#X	2enX	2gM	2b-M
=7	=7	=7	=7	=7	=7	=7	=7	=7	=7	=7
2D	#	2a	2F#X	2D	2a	1d	2D	2d	2f#X	2a
2GG	.	2b-	[2G	2GG	2b-	.	2GG	2d	[2g	2b-
=8	=8	=8	=8	=8	=8	=8	=8	=8	=8	=8
2C	6 5	1am	2G]	2C	1am	2e-X	(2C	(2e-X	(2g]	1am
2D	#	.	2F#X	2D	.	2d	2D)	4d	2f#Xm)	.
.	.	.	.	.	.	.	.	4c)	.	.
=9	=9	=9	=9	=9	=9	=9	=9	=9	=9	=9
*	*	*	*	*	*	*^	*	*	*	*
2GG;<	.	2g;	2G	2GG;	2g;	2d;y	2B-\;y	2GG;	2B-;	2g;	2g;
*	*	*	*	*	*	*v	*v	*	*	*	*
=10:|!	=10:|!	=10:|!	=10:|!	=10:|!	=10:|!	=10:|!	=10:|!	=10:|!	=10:|!	=10:|!
2BBnX	5	2dd	2G	2BBnX	2dd	2f	2BBn	2f	2g	2dd
=11	=11	=11	=11	=11	=11	=11	=11	=11	=11	=11
2C	.	2ee-	2G	2C	2ee-	2e-	2C	2e-	2g	2ee-
2F	8	2cc	[2A	2F	2cc	4f	2F	(4f	[2a	2cc
.	7	.	.	.	.	4e-	.	4e-)	.	.
=12	=12	=12	=12	=12	=12	=12	=12	=12	=12	=12
2BB-	7	2dd	2A]	2BB-	2dd	1d	2BB-	2d	2a]	2dd
[2G	.	2b-	2G	[2G	2b-	.	[2G	2d	2g	2b-
=13	=13	=13	=13	=13	=13	=13	=13	=13	=13	=13
2G]	2	2cc	2.A	2G]	2cc	2e-	2G]	2e-	2a	2cc
2F#X	6	2dd	.	2F#X	2dd	2d	2F#X	(4d	2a	2dd
.	5	.	[4c	.	.	.	.	[4c)	.	.
=14	=14	=14	=14	=14	=14	=14	=14	=14	=14	=14
2G;<	4	2g;	4c]	2G;	2g;	2d;y	2G;	4c]	2g;	2g;
.	3	.	4B-;y	.	.	.	.	4B-;	.	.
2A-X	2	2dd	2B-	2A-X	2dd	2f	2A-X	2B-	2f	2dd
=15	=15	=15	=15	=15	=15	=15	=15	=15	=15	=15
2G	6	2ee-	2B-	2G	2ee-	2g	2G	2B-	2g	2ee-
2AnX	6	2cc	2c	2AnX	2cc	2f	2AnX	2c	2f	2cc
=16	=16	=16	=16	=16	=16	=16	=16	=16	=16	=16
2B-	.	2dd	2B-	2B-	2dd	2f	2B-	2B-	2f	2dd
4E-	.	2b-	2B-	4E-	2b-	2g	(4E-	2B-	2g	2b-
4D	.	.	.	4D	.	.	4D)	.	.	.
=17	=17	=17	=17	=17	=17	=17	=17	=17	=17	=17
2C	.	2cc	2e->	2C	2cc	2g	2C	2e-	2g	2cc
2BBnX	5	2dd	2f>	2BBnX	2dd	2g	2BBnX	[2f	2g	2dd
=18	=18	=18	=18	=18	=18	=18	=18	=18	=18	=18
2C;<	4	2g;	4f>	2C;	2g;	2g;y	2C;	(4f]	2g;	2g;
.	3	.	4e->;y	.	.	.	.	4e-;)	.	.
2GG	.	2b-	2d>	2GG	2b-	[2g	2GG	2d	[2g	2b-
=19	=19	=19	=19	=19	=19	=19	=19	=19	=19	=19
2D	4	2a	2d	2D	2a	4g]	2D	2d	(4g]	2a
.	3	.	.	.	.	2f	.	.	2f)	.
2E-	9	2g	2B-	2E-	2g	.	2E-	2B-	.	2g
.	8	.	.	.	.	[4e-	.	.	[4e-	.
=20	=20	=20	=20	=20	=20	=20	=20	=20	=20	=20
2BB-	4	2f	2B-	2BB-	2f	4e-]	2BB-	2B-	(4e-]	2f
.	3	.	.	.	.	4d	.	.	4d)	.
2BBnX	6	4g	2G	2BBnX	(4g	[2d	2BBnX	2G	[2d	(4g
.	5	4f	.	.	4f)	.	.	.	.	4f)
=21	=21	=21	=21	=21	=21	=21	=21	=21	=21	=21
4C	9	2e-	2G	4C	2e-	2d]	(4C	2G	2d]	2e-
4D	.	.	.	4D	.	.	4D)	.	.	.
4E-	6	2e-M	2G	4E-	2e-M	[2c	(4E-	2G	[2cM	2e-M
4F	.	.	.	4F	.	.	4F)	.	.	.
=22	=22	=22	=22	=22	=22	=22	=22	=22	=22	=22
2G;<	4	2d;	2G;y	2G;	2d;	4c]	2G;	2G;	4c]	2d;
.	n	.	.	.	.	4BnX;y	.	.	4BnX;	.
[2E-	6	2g	4G	[2E-	2g	2c	[2E-	(4G	2c	2g
.	5	.	4B-X	.	.	.	.	4B-)	.	.
=23	=23	=23	=23	=23	=23	=23	=23	=23	=23	=23
4E-]	4 2	2f	4A	(4E-]	2f	4c	(4E-]	(4A	(4c	2f
4D	6	.	4B-	4D)	.	4d	4D)	4B-)	4d)	.
4C	6	2am	4E-	(4C	2am	[2e-	(4C	(4E-	[2e-	2am
4F	7	.	4F	4F)	.	.	4F)	4F)	.	.
=24	=24	=24	=24	=24	=24	=24	=24	=24	=24	=24
2BB-;<	4	2b-;	2F;y	2BB-;	2b-;	4e-]	2BB-;	2F;	4e-]	2b-;
.	3	.	.	.	.	4d;y	.	.	4d;	.
2D	6	2f	4B-	2D	2f	2d	2D	(4B-	2d	2f
.	-r5	.	4A-X	.	.	.	.	4A-X)	.	.
=25	=25	=25	=25	=25	=25	=25	=25	=25	=25	=25
4E-	5	2g	2G	4E-	2g	4B-	(4E-	2G	4B-	2g
4EnX	6	.	.	4EnX	.	2c	4EnX)	.	2c	.
4F	5	2a	4F	(4F	2a	.	(4F	(4F	.	2a
4F#X	6	.	4AnX	4F#X)	.	4d	4F#X)	4AnX)	4d	.
=26	=26	=26	=26	=26	=26	=26	=26	=26	=26	=26
4G	.	2b-	2G	4G	2b-	2d	(4G	2G	2d	2b-
4FnX	.	.	.	4FnX	.	.	4FnX)	.	.	.
4E-	6	2cc	[2G	4E-	2cc	4c	(4E-	[2G	4c	2cc
4C	.	.	.	4C	.	4e-	4C)	.	4e-	.
=27	=27	=27	=27	=27	=27	=27	=27	=27	=27	=27
2D	6 4	2b-	2G]	2D	2b-	1d	2D	2G]	2d	2b-
2D	5 #	2am	4F#X	2D	2am	.	2D	(4F#X	2d	2am
.	.	.	4c	.	.	.	.	4c)	.	.
=28	=28	=28	=28	=28	=28	=28	=28	=28	=28	=28
2GG;<	.	2g;	2B->;y	2GG;	2g;	2d;y	2GG;	2B-;	2d;	2g;
*	*	*	*v	*v	*	*	*	*	*	*
*	*	*	*	*v	*v	*	*	*	*
==	==	==	==	==	==	==	==	==
*-	*-	*-	*-	*-	*-	*-	*-	*-
!!!system-decoration: {(s1,s2,s3,s4)}{(s5,s6)}{(s7,s8)}
!!!RDF**kern: > = above
!!!RDF**kern: < = below
!!!AGN: chorale
!!!EED: Derek Remeš
!!!EED2: Victor Phan
!!!END: 2023/12/18
!!!ENC: Wolfgang Drescher
!!!EEV: 2023/12/18
!!!title: @{ONM}. @{OTL}
!!!verovio: mnumInterval 1